src/images/bridges/axelar.svg

<svg width="36" height="36" viewBox="0 0 36 36" fill="none" xmlns="http://www.w3.org/2000/svg">
<circle cx="18" cy="18" r="18" transform="rotate(180 18 18)" fill="black"/>
<g filter="url(#filter0_d_7_81)">
<path d="M19.3946 16.1051L26.7208 8.77912L23.9414 6L18.0051 11.9363L12.0688 6L9.28958 8.77912L16.6156 16.1051C16.9993 16.4888 17.5022 16.6807 18.0051 16.6807C18.508 16.6807 19.0109 16.4889 19.3946 16.1051ZM30 23.9313L24.0637 17.9951L30 12.0586L27.2208 9.27951L19.895 16.6055C19.1277 17.373 19.1277 18.6171 19.895 19.3846L27.2208 26.7106L30 23.9313ZM17.9949 24.0637L23.9312 30L26.7102 27.2209L19.3844 19.8949C18.6168 19.1274 17.3729 19.1274 16.6052 19.8949L9.27941 27.2209L12.0586 30L17.9949 24.0637ZM16.105 19.3947C16.4737 19.026 16.6806 18.5263 16.6806 18.0051C16.6806 17.4839 16.4737 16.984 16.105 16.6156L8.77923 9.28957L6 12.0689L11.9363 18.0051L6 23.9415L8.77923 26.7207L16.105 19.3947Z" fill="white"/>
</g>
<defs>
<filter id="filter0_d_7_81" x="3.018" y="3.018" width="29.964" height="29.964" filterUnits="userSpaceOnUse" color-interpolation-filters="sRGB">
<feFlood flood-opacity="0" result="BackgroundImageFix"/>
<feColorMatrix in="SourceAlpha" type="matrix" values="0 0 0 0 0 0 0 0 0 0 0 0 0 0 0 0 0 0 127 0" result="hardAlpha"/>
<feOffset/>
<feGaussianBlur stdDeviation="1.491"/>
<feColorMatrix type="matrix" values="0 0 0 0 0 0 0 0 0 0 0 0 0 0 0 0 0 0 0.13 0"/>
<feBlend mode="normal" in2="BackgroundImageFix" result="effect1_dropShadow_7_81"/>
<feBlend mode="normal" in="SourceGraphic" in2="effect1_dropShadow_7_81" result="shape"/>
</filter>
</defs>
</svg>

<svg xmlns="http://www.w3.org/2000/svg" width="36" height="36" fill="none"><circle cx="18" cy="18" r="18" fill="#000" transform="rotate(180 18 18)"/><g filter="url(#a)"><path fill="#fff" d="M19.395 16.105 26.72 8.78 23.94 6l-5.936 5.936L12.07 6l-2.78 2.78 7.327 7.325c.383.384.886.576 1.39.576.502 0 1.005-.192 1.389-.576M30 23.931l-5.936-5.936L30 12.06l-2.78-2.78-7.325 7.326a1.965 1.965 0 0 0 0 2.78l7.326 7.326zm-12.005.133L23.93 30l2.78-2.78-7.327-7.325a1.965 1.965 0 0 0-2.779 0L9.28 27.22 12.06 30zm-1.89-4.67a1.965 1.965 0 0 0 0-2.778L8.779 9.29 6 12.069l5.936 5.936L6 23.942l2.78 2.779z"/></g><defs><filter id="a" width="29.964" height="29.964" x="3.018" y="3.018" color-interpolation-filters="sRGB" filterUnits="userSpaceOnUse"><feFlood flood-opacity="0" result="BackgroundImageFix"/><feColorMatrix in="SourceAlpha" result="hardAlpha" values="0 0 0 0 0 0 0 0 0 0 0 0 0 0 0 0 0 0 127 0"/><feOffset/><feGaussianBlur stdDeviation="1.491"/><feColorMatrix values="0 0 0 0 0 0 0 0 0 0 0 0 0 0 0 0 0 0 0.13 0"/><feBlend in2="BackgroundImageFix" result="effect1_dropShadow_7_81"/><feBlend in="SourceGraphic" in2="effect1_dropShadow_7_81" result="shape"/></filter></defs></svg>
